X:85
T:Ciacona in C minor (BuxWV 159)
C:Buxtehude, D.
M:3/4
L:1/8
Q:1/4=60
K:Cmin
|:G2|c4 Bc|d2 ef g2|f4 ef|g4 f2|
e4 de|f2 ed c2|d2 EF GA|G4:|

